X:124
T:Sortez de l'amoureux empire. [FJ24]
T:(essentially as it appears in the manuscript)
S:Festin joyeux.  Music page 12.
Z:transcribed by Eric Conrad, 2021.
N:NB The meter is given simply as "2"
N:NB G is the first line of the staff (lines: GBdfa), so watch out!
N:NB MS has a four-dot repeat in the middle, with no marks at start or end.
N:NB The MS repeat mark is 4 vertical dots enclosed by bars on both sides.
N:NB The plus signs seem to indicate some kind of roll or trill.
N:NB In MS, music is keyed in D Dorian, but each B is flatted.
N:NB1 First note is D.  G is on line 1 in MS. No start of repeat in the MS.
N:NB2 All B notes are marked accidentally flat in MS. Accidental moved to key signature here.
N:NB3 Short measure followed by a repeat mark (described above).
N:NB4 Sharp C - raised seventh. (Harmonic minor.)
N:NB5 Short measure with (as usual) no repeat indication.
N:NB6 sic!
N:NB7 see NB7 in "corrected" version
M:2
L:1/4
% Key signature, B is marked flat throughout, so Dmin (here) instead of D Dorian (MS)
K:Ddor clef=treble1 % MS has G on line 1, so third line is D
"_NB1"zd f>f | ga "^+"ge | fd fg/a/ | "_NB2"_b2 ba | "^+"g2 g/f/g | "_NB3"a2- ::
 "_NB6"a3e | fg/a/ de/f/ | "^+"e2 fg/a/ | "_NB2"_ba bg | a/> (g/ f) za |
b>a "^+"g>f | ef g/f/e/d/ | "_NB4""^+"^c2 ze | a2 ee/f/ | (f2 "^+"e2) | "_NB5,7"d2 ||



